X: 35470
T: Roxburgh Castle
R: hornpipe
M: 4/4
K: Gmajor
|:dB|G3B BAGB|cBce dBG2|c2ec B2dB|A2A2 gedB|
G3B dBGB|cBce dBG2|c2(3cde gedB|A2G2 G2:|
|:(3def|gdBd GdBd|gdBd GdBd|c2ec B2dB|A2A2 gedB|
G3B dBGB|cB (3cde dBGB|c2(3cde gedB|A2G2 G2:|

